X: 1791
T: Patterson's Air
B: australian traditional tunes wiki
M:3/4
L:1/8
R: Waltz
Q: 1/4=100
K:G
V:1 
D2|"G"G3F AG|B4Bc|"D"A3G AB|"G"G4D2|"G"G3 F AG|"G"B4BB|"A"A3A B^c|"D"d4d2|
"C"e3d cB|"C"c4B2|"D7"d3 c BA|"G"B4c2|"D"d3 c BA|"C"GFE4|"D7"A3B cB|"G"G4||
% abcbook-tune_id 6342d53ad87a21deaabf6be2


% abcbook-boost 0
% abcbook-tablature 
% abcbook-transpose 
% abcbook-lastupdated 1665324384073
% abcbook-soundfonts 
% abcbook-repeats 1
% NFF Book 2008

